X:1
T:Vårsång
T:W. Peterson-Berger (1867-1942)
T:Vårsång
T:©PA Aglert
T:©PA Aglert
T:©PA Aglert
T:©PA Aglert
T:©PA Aglert
T:©PA Aglert
C:W. Peterson-Berger (1867-1942)
Z:©PA Aglert
%%score [ 1 2 3 4 ]
L:1/8
Q:1/4=90
M:3/4
K:F
V:1 treble nm="S"
V:2 treble nm="A"
V:3 treble-8 nm="T"
V:4 bass nm="B"
V:1
"^Moderato espressivo"!mf! F | c>d c3!p!!>(! A | AG F3!>)!!sfz! F |!<(! F>F E!<)!F!f! ed | %4
w: Du|fag- ra vår som|å- ter ler här-|up- pe mel- lan nor- dens|
 !>!B2!>(! A3 G!>)! |!p! GF/G/!<(! A3 =B | dc/!<)!d/ e3!>(! c!>)! | _e>!<(!e d2 A2!<)! | %8
w: i- sar, hur|tve- kan- de än och|skygg du dig ter, ditt|ljus min läng- tan|
!f!!>(! c2 B3!>)! B |!p!!>(! AG F3!>)! G |!pp! G4 G2 |!>(! F4 _E2 | D4- DC!>)! |!ppp! C2 z2 z2 | %14
w: li- sar från|kva- va kam- rars|frid och|dröm- tung|vin- * ter-|id.|
 z2 z2 z!mf! C | F>_A c3 c | _d>_e c3 c | B>c _A2!>(! GF!>)! | %18
w: Och|fast din strål- lek|län- ge slår för-|gä- ves än e- mot|
!p!!<(! G>!<)!_A!>(! A2!>)! G!mp![Gc] | [_Ac][Ac] [Ac][Ac] [Ac][Ac] | [GB][GB] [_Ac][Ac] [Ac][Ac] | %21
w: dri- vans kan- ter, fast|fros- tens vi- ta spi- ra,|fros- tens vi- ta spi- ra|
 [G_d][Gc] cF!<(! G_A!<)! |!f! G>_A!>(! A2 G!>)!G |!ppp! c"^cresc."c/c/ c3 c | cc/c/ c3 c | %25
w: når än- nu hit ned från|fjäl- lens bran- ter, din|blid- het en gång skall|seg- ra lik- väl. Med|
 cc/c/ c2 c2 | cc/c/!f! c3!<(! F!<)! |!ff! G3"^dolce" G Bd | c>d c3 F | G3 f dB | %30
w: jub- lan- de sång och|ljus i min själ jag|häl- sar dig, du|fag- ra vår, jag|häl- sar dig, du|
!f!!>(! A>G!>)!!p!!>(! F4-!>)! |!pp! F4!<(! G2!<)! |!p!!<(! A2!<)!!mf!!>(! c3!>)!!p! F | %33
w: fag- ra vår|* du|fag- ra, du|
!<(! (G2!<)! A2)!>(! A2!>)! |!p! !fermata!F6 |] %35
w: fag- * ra|vår!|
V:2
!mf! F | F>F F3!p!!>(! F | DE F3!>)!!sfz! C |!<(! D>D E!<)!D!f! FF | !>!E2!>(! E3 E!>)! | %5
w: Du|fag- ra vår som|å- ter ler här-|up- pe mel- lan nor- dens|i- sar, hur|
!p! ED/E/!<(! F3 F | E3!<)! E/!>(!E/ EA!>)! | B>!<(!B A2!<)! A2 |!f!!>(! A2 G3!>)! D | %9
w: tve- kan- de än och|skygg du dig ter, ditt|ljus min läng- tan|li- sar från|
!p!!>(! _EE D3!>)! B, |!pp! B,4 B,2 |!>(! =B,4 C2 | =B,4- B,C!>)! |!ppp! C2 z2 z2 | z2 z2 z!mf! C | %15
w: kva- va kam- rars|frid och|dröm- tung|vin- * ter-|id.|Och|
 F>_A c3 c | _d>_e c3 F | FF F!>(!F !courtesy!=EF!>)! |!p!!<(! F>!<)!F!>(! E2!>)! E!mp![CE] | %19
w: fast din strål- lek|län- ge slår för-|gä- ves än- nu e- mot|dri- vans kan- ter, fast|
 [CF]F FF FF | FF FF FF | F!courtesy!=E FF!<(! E!<)!F |!f! F>F!>(! F2 D!>)!D | %23
w: fros- tens vi- ta spi- ra,|fros- tens vi- ta spi- ra|når än- nu hit ned från|fjäl- lens bran- ter, din|
!ppp! C"^cresc."C/C/ C3 C | DD/D/ D3 D | _EE/E/ E2 E2 | !courtesy!=E[CE]/[CE]/!f! [CE]3!<(! C!<)! | %27
w: blid- het en gång skall|seg- ra lik- väl. Med|jub- lan- de sång och|ljus i min själ jag|
!ff! D3"^dolce" D G[GB] | [GB]>[GB] A3 C | D3 B BF |!f!!>(! E>!>)!E!p!!>(! F4-!>)! | %31
w: häl- sar dig, du|fag- ra vår, jag|häl- sar dig, du|fag- ra vår|
!pp! F4!<(! F2!<)! |!p!!<(! F2!<)!!mf!!>(! F3!>)!!p! C |!<(! (D2!<)!!>(! E2) E2!>)! | %34
w: * du|fag- ra, du|fag- * ra|
!p! !fermata!C6 |] %35
w: vår!|
V:3
!mf! F | A>B A3!p!!>(! c | =B_B A3!>)!!sfz! A |!<(! A>A A!<)!A!f! GG | !>!d2!>(! c3!>)! B | %5
w: Du|fag- ra vår som|å- ter ler här-|up- pe mel- lan nor- dens|i- sar, hur|
!p! A3!<(! A/A/ AA | AA/=B/!<)! c3!>(! e!>)! | _e>!<(!B c2!<)! d2 |!f!!>(! _e2 d3!>)! d | %9
w: tve- kan- de än och|skygg du dig ter, ditt|ljus min läng- tan|li- sar från|
!p!!>(! cB A3!>)! G |!pp! G4 G2 |!>(! G4 G2 | (G2 F3) _E!>)! |!ppp! _E!pp![_Ac] [Ac][Ac] [Ac][Ac] | %14
w: kva- va kam- rars|frid och|dröm- tung|vin- * ter-|id. Och fast din strål- lek|
 [_Ac][Ac] [Ac][Ac]!<(! [Bc][Bc]!<)! |!mp! [_Ac][cf] [cf][cf] [cf][cf] | %16
w: län- ge slår för- gä- ves|e- mot dri- vans kan- ter,|
 [Bf][Bf] [cf][cf] [cf][_Ac] | BG c2!>(! cc!>)! |!p!!<(! =B>!<)!c!>(! [_Bc]2!>)! c!f!C | F>A c3 c | %20
w: fast din strål- lek län- ge|slår för- gä- ves mot|dri- vans kan- ter, fast|fros- tens vi- ta|
 _d>_e c3 c | B>c (_Ac) cc | =B>c!>(! c2 _B!>)!B |!ppp! c"^cresc."c/c/ c3 c | =BB/B/ B3 B | %25
w: spi- ra når än-|nu hit ned * i- från|fjäl- lens bran- ter, din|blid- het en gång skall|seg- ra lik- väl. Med|
 !courtesy!_BB/B/ A2 _A2 | G[GB]/[GB]/!f! [GB]3!<(! !courtesy!=A!<)! |!ff! B3"^dolce" B df | %28
w: jub- lan- de sång och|ljus i min själ jag|häl- sar dig, du|
 [ce]>[ce] [cf]3 A | B3 d fd |!f!!>(! c>!>)!B!p!!>(! A4-!>)! |!pp! A4!<(! d2!<)! | %32
w: fag- ra vår, jag|häl- sar dig, du|fag- ra vår|* du|
!p!!<(! c2!<)!!mf!!>(! A3!>)!!p! A |!<(! (B2!<)!!>(! c2) B2!>)! |!p! !fermata!A6 |] %35
w: fag- ra, du|fag- * ra|vår!|
V:4
!mf! F, | F,>F, F,3!p!!>(! F, | F,F, F,3!>)!!sfz! E, |!<(! D,>D, C,C,!<)!!f! =B,,B,, | %4
w: Du|fag- ra vår som|å- ter ler här-|up- pe mel- lan nor- dens|
 !>!C,2!>(! C,3 C,!>)! |!p! D,3!<(! D,/D,/ D,D, | A,,3!<)! A,/!>(!A,/ A,A,!>)! | %7
w: i- sar, hur|tve- kan- de än och|skygg du dig ter, ditt|
 G,>!<(!G, ^F,2 F,2!<)! |!f!!>(! G,2 G,3!>)! G, |!p!!>(! C,C, D,3!>)! _E, |!pp! _E,4 E,2 | %11
w: ljus min läng- tan|li- sar från|kva- va kam- rars|frid och|
!>(! D,4 C,2 | G,,4- G,,_A,,!>)! |!ppp! _A,,!pp![A,,_E,] [A,,E,][A,,E,] [A,,E,][A,,E,] | %14
w: dröm- tung|vin- * ter-|id. Och fast din strål- lek|
 [_A,,_E,][A,,E,] [A,,E,][A,,E,]!<(! [G,,=E,][G,,E,]!<)! | %15
w: län- ge slår för- gä- ves|
!mp! [F,,F,][F,_A,] [F,A,][F,A,] [F,A,][F,A,] | [F,G,][F,G,] [F,_A,][F,A,] [F,A,]F, | %17
w: e- mot dri- vans kan- ter,|fast din strål- lek län- ge|
 _D,D, C,C!>(! B,_A,!>)! |!p!!<(! G,>!<)!C,!>(! C,2!>)! C!f!C, | F,>_A, C3 C | _D>_E C3 C | %21
w: slår för- gä- ves e- mot|dri- vans kan- ter, fast|fros- tens vi- ta|spi- ra når än-|
 B,>C _A,2 G,F, | D,>D,!>(! D,2 G,!>)!G, |!ppp! C,"^cresc."C,/C,/ C,3 C, | C,C,/C,/ C,3 C, | %25
w: nu hit ned i- från|fjäl- lens bran- ter, din|blid- het en gång skall|seg- ra lik- väl. Med|
 C,C,/C,/ C,2 C,2 | C,C,/C,/!f! C,3!<(! F,!<)! |!ff! F,3"^dolce" F, F,F, | F,>F, F,3 F, | %29
w: jub- lan- de sång och|ljus i min själ jag|häl- sar dig, du|fag- ra vår, jag|
 F,3 F, F,F, |!f!!>(! C,>C,!>)!!p!!>(! (^C,4!>)! |!pp! D,4)!<(! =B,,2!<)! | %32
w: häl- sar dig, du|fag- ra vår|* du|
!p!!<(! C,6-!<)!!mf!!p! |!>(!!<(! C,4!<)!!>(! C,2!>)!!>)! |!p! !fermata!F,6 |] %35
w: fag-|* ra|vår!|

